public/icons/ri_arrow-right-line.svg

<svg width="24" height="25" viewBox="0 0 24 25" fill="none" xmlns="http://www.w3.org/2000/svg">
<path d="M16.172 11.6226L10.808 6.2586L12.222 4.8446L20 12.6226L12.222 20.4006L10.808 18.9866L16.172 13.6226H4V11.6226H16.172Z" fill="black"/>
</svg>

<?xml version="1.0" encoding="UTF-8"?>
<svg id="Layer_1" xmlns="http://www.w3.org/2000/svg" version="1.1" viewBox="0 0 24 25">
  <!-- Generator: Adobe Illustrator 29.0.0, SVG Export Plug-In . SVG Version: 2.1.0 Build 186)  -->
  <defs>
    <style>
      .st0 {
        fill: #fff;
      }
    </style>
  </defs>
  <path class="st0" d="M16.2,11.6l-5.4-5.4,1.4-1.4,7.8,7.8-7.8,7.8-1.4-1.4,5.4-5.4H4v-2h12.2Z"/>
</svg>
